symbols/web/folder_off/materialsymbolsoutlined/folder_off_wght100grad200fill1_48px.svg

<svg xmlns="http://www.w3.org/2000/svg" height="48" width="48"><path d="M42.15 35.9 17.7 11.45h3.95L24 13.8h14.85q1.4 0 2.375.975.975.975.975 2.375V35.6q0 .2-.05.3Zm1.05 8.75-6.25-6.25H9.15q-1.4 0-2.375-.975Q5.8 36.45 5.8 35.05V14.8q0-1.35.9-2.3.9-.95 2.25-1.05h3.5V14l-5.8-5.85L7.9 6.9l36.5 36.5Z"/></svg>

<svg xmlns="http://www.w3.org/2000/svg" height="48" width="48"><path d="M42.15 35.9 17.7 11.45H21.65L24 13.8H38.85Q40.25 13.8 41.225 14.775Q42.2 15.75 42.2 17.15V35.1Q42.2 35.4 42.2 35.6Q42.2 35.8 42.15 35.9ZM43.2 44.65 36.95 38.4H9.15Q7.75 38.4 6.775 37.425Q5.8 36.45 5.8 35.05V14.8Q5.8 13.5 6.7 12.525Q7.6 11.55 9 11.45H10L6.65 8.15L7.9 6.9L44.4 43.4Z"/></svg>
